X:319
M:C
L:1/8
K:A Minor
E<G D>B, A,/A,/A, ~A,2:|
a3b a/a/a a2|g>ag>e d/c/B/A/ G>g|e>de>g a>ba>g|g>ed>B A/A/A A2|
a3b a/a/a a2|g<b e>g d/c/B/A/ G>g|e>de>g a>ba>g|g>ed>B A/A/A A||
|:^F|E>A, A,/A,/A, E>A, E2|D>B, G,/G,/G, G>AB>D|E>A, A,/A,/A, E<A, E>A|
|:a>ba>e a>ba>e|g>ag>e d/c/B/A/ G>g|e>de>g a>ba>g|g>ed>B A/A/A A2:|

